icons/evolvere-blue-folders-flat-vivid-dark-fallback/apps/64/curlew.svg

<?xml version="1.0" encoding="UTF-8" standalone="no"?>
<!-- Created with Inkscape (http://www.inkscape.org/) -->

<svg
   xmlns:dc="http://purl.org/dc/elements/1.1/"
   xmlns:cc="http://creativecommons.org/ns#"
   xmlns:rdf="http://www.w3.org/1999/02/22-rdf-syntax-ns#"
   xmlns:svg="http://www.w3.org/2000/svg"
   xmlns="http://www.w3.org/2000/svg"
   xmlns:xlink="http://www.w3.org/1999/xlink"
   xmlns:sodipodi="http://sodipodi.sourceforge.net/DTD/sodipodi-0.dtd"
   xmlns:inkscape="http://www.inkscape.org/namespaces/inkscape"
   width="64"
   height="64"
   id="svg13094"
   version="1.1"
   inkscape:version="0.91+devel r"
   sodipodi:docname="curlew.svg">
  <sodipodi:namedview
     id="base"
     pagecolor="#ffffff"
     bordercolor="#666666"
     borderopacity="1.0"
     inkscape:pageopacity="0"
     inkscape:pageshadow="2"
     inkscape:zoom="11.313709"
     inkscape:cx="41.461"
     inkscape:cy="31.357604"
     inkscape:document-units="px"
     inkscape:current-layer="svg13094"
     showgrid="false"
     inkscape:snap-bbox="true"
     inkscape:bbox-paths="true"
     inkscape:bbox-nodes="true"
     inkscape:snap-bbox-edge-midpoints="true"
     inkscape:snap-bbox-midpoints="true"
     inkscape:object-paths="true"
     inkscape:snap-intersection-paths="true"
     inkscape:object-nodes="true"
     inkscape:snap-smooth-nodes="true"
     inkscape:snap-midpoints="true"
     inkscape:snap-object-midpoints="true"
     inkscape:snap-center="true"
     showguides="true"
     inkscape:guide-bbox="true"
     inkscape:window-width="1920"
     inkscape:window-height="1023"
     inkscape:window-x="-10"
     inkscape:window-y="35"
     inkscape:window-maximized="1"
     inkscape:snap-global="true"
     fit-margin-top="0"
     fit-margin-left="0"
     fit-margin-right="0"
     fit-margin-bottom="0"
     showborder="true"
     inkscape:showpageshadow="false"
     inkscape:snap-page="true">
    <inkscape:grid
       type="xygrid"
       id="grid3075"
       empspacing="5"
       visible="true"
       enabled="true"
       snapvisiblegridlinesonly="true"
       originx="1.6362304e-08px"
       originy="18px" />
  </sodipodi:namedview>
  <defs
     id="defs13096">
    <linearGradient
       id="linearGradient3818">
      <stop
         style="stop-color:#ff791f;stop-opacity:0.75888819;"
         offset="0"
         id="stop3820" />
      <stop
         style="stop-color:#ff7213;stop-opacity:0;"
         offset="1"
         id="stop3822" />
    </linearGradient>
    <radialGradient
       inkscape:collect="always"
       xlink:href="#linearGradient3818"
       id="radialGradient3828-6"
       gradientUnits="userSpaceOnUse"
       gradientTransform="matrix(2.2652266,-1.5222059e-8,0,1.3546227,-40.48725,-11.123715)"
       cx="31.941113"
       cy="31.442253"
       fx="31.941113"
       fy="31.442253"
       r="32" />
  </defs>
  <metadata
     id="metadata13099">
    <rdf:RDF>
      <cc:Work
         rdf:about="">
        <dc:format>image/svg+xml</dc:format>
        <dc:type
           rdf:resource="http://purl.org/dc/dcmitype/StillImage" />
        <dc:title></dc:title>
      </cc:Work>
    </rdf:RDF>
  </metadata>
  <path
     style="color:#000000;fill:#3adaef;fill-opacity:1;fill-rule:nonzero;stroke:none;stroke-width:2.28571415;marker:none;visibility:visible;display:inline;overflow:visible;enable-background:accumulate"
     d="M 2,0 0,1 0,2 32,2 64,2 64,1 62,0 32,0 z"
     id="path6502"
     inkscape:connector-curvature="0"
     sodipodi:nodetypes="ccccccccc" />
  <path
     sodipodi:nodetypes="ccccccccccccccccccccccccccccccccccccccccccccccccccccccccccccc"
     inkscape:connector-curvature="0"
     id="path3029"
     d="m 0,2 0,32 0,28 2,2 30,0 30,0 2,-2 0,-28 0,-32 -32,0 z m 4,3 7,0 0,8 -7,0 z m 49,0 7,0 0,8 -7,0 z m -49,12 7,0 0,8 -7,0 z m 49,0 7,0 0,8 -7,0 z m -49,12 7,0 0,8 -7,0 z m 49,0 7,0 0,8 -7,0 z m -49,12 7,0 0,8 -7,0 z m 49,0 7,0 0,8 -7,0 z m -49,12 7,0 0,8 -7,0 z m 49,0 7,0 0,8 -7,0 z"
     style="color:#000000;fill:#3e6782;fill-opacity:1;fill-rule:nonzero;stroke:none;stroke-width:2.28571415;marker:none;visibility:visible;display:inline;overflow:visible;enable-background:accumulate" />
  <path
     style="color:#000000;display:inline;overflow:visible;visibility:visible;opacity:1;fill:#d57e39;fill-opacity:1;fill-rule:nonzero;stroke:none;stroke-width:1;stroke-linecap:butt;stroke-linejoin:miter;stroke-miterlimit:4;stroke-dasharray:none;stroke-dashoffset:0;stroke-opacity:1;marker:none;enable-background:accumulate"
     d="M 58.158203 0 L 54.693359 2 L 7.9277344 29 L 11 29 L 11 35 L 4 35 L 4 31.267578 L 0 33.578125 L 0 34 L 0 62 L 2 64 L 11.306641 64 L 58.072266 37 L 60 35.886719 L 64 33.578125 L 64 2 L 64 1 L 62 0 L 58.158203 0 z M 53 5 L 60 5 L 60 11 L 53 11 L 53 5 z M 53 17 L 60 17 L 60 23 L 53 23 L 53 17 z M 53 29 L 60 29 L 60 35 L 53 35 L 53 29 z M 4 41 L 11 41 L 11 47 L 4 47 L 4 41 z M 4 53 L 11 53 L 11 59 L 4 59 L 4 53 z "
     id="rect4191" />
  <path
     inkscape:connector-curvature="0"
     id="path4573"
     d="M 54.693359,2 7.927734,29 11,29 11,37 4,37 4,31.267578 0,33.578125 0,34 0,62 2,64 11.306641,64 58.072266,37 53,37 l 0,-8 7,0 0,6.886719 4,-2.308594 L 64,2 54.693359,2 Z M 53,5 l 7,0 0,8 -7,0 0,-8 z m 0,12 7,0 0,8 -7,0 0,-8 z m -49,24 7,0 0,8 -7,0 0,-8 z m 0,12 7,0 0,8 -7,0 0,-8 z"
     style="color:#000000;display:inline;overflow:visible;visibility:visible;opacity:1;fill:#c26b38;fill-opacity:1;fill-rule:nonzero;stroke:none;stroke-width:1;stroke-linecap:butt;stroke-linejoin:miter;stroke-miterlimit:4;stroke-dasharray:none;stroke-dashoffset:0;stroke-opacity:1;marker:none;enable-background:accumulate" />
  <path
     style="color:#000000;display:inline;overflow:visible;visibility:visible;fill:#23b4d2;fill-opacity:1;fill-rule:nonzero;stroke:none;stroke-width:2.28571415;marker:none;enable-background:accumulate"
     d="M 0 2 L 0 33.578125 L 4 31.267578 L 4 29 L 7.9277344 29 L 54.693359 2 L 32 2 L 0 2 z M 4 5 L 11 5 L 11 11 L 4 11 L 4 5 z M 4 17 L 11 17 L 11 23 L 4 23 L 4 17 z "
     id="path4290" />
  <path
     id="path4583"
     d="M 0,2 0,33.578125 4,31.267578 4,29 7.9277344,29 54.693359,2 32,2 0,2 Z m 4,3 7,0 0,8 -7,0 0,-8 z m 0,12 7,0 0,8 -7,0 0,-8 z"
     style="color:#000000;display:inline;overflow:visible;visibility:visible;fill:#0f92b9;fill-opacity:1;fill-rule:nonzero;stroke:none;stroke-width:2.28571415;marker:none;enable-background:accumulate"
     inkscape:connector-curvature="0" />
  <path
     style="color:#000000;display:inline;overflow:visible;visibility:visible;fill:#8552bf;fill-opacity:1;fill-rule:nonzero;stroke:none;stroke-width:2.28571415;marker:none;enable-background:accumulate"
     d="M 64 33.578125 L 60 35.886719 L 58.072266 37 L 11.306641 64 L 32 64 L 62 64 L 64 62 L 64 34 L 64 33.578125 z M 53 41 L 60 41 L 60 47 L 53 47 L 53 41 z M 53 53 L 60 53 L 60 59 L 53 59 L 53 53 z "
     id="path4284" />
  <path
     inkscape:connector-curvature="0"
     id="path4578"
     d="M 64,33.578125 60,35.886719 60,37 58.07227,37 11.306641,64 32,64 l 30,0 2,-2 0,-28 0,-0.421875 z M 53,41 l 7,0 0,8 -7,0 0,-8 z m 0,12 7,0 0,8 -7,0 0,-8 z"
     style="color:#000000;display:inline;overflow:visible;visibility:visible;fill:#6748a5;fill-opacity:1;fill-rule:nonzero;stroke:none;stroke-width:2.28571415;marker:none;enable-background:accumulate" />
  <g
     id="g3043"
     inkscape:export-filename="folder.png"
     inkscape:export-xdpi="90"
     inkscape:export-ydpi="90"
     transform="translate(-0.62500009,0.082283)" />
  <g
     id="scalable"
     transform="matrix(1.0385892,0,0,1.0385892,1214.7222,1878.8121)"
     inkscape:label="#g3701"
     style="fill:#ffffff" />
  <path
     id="path4585"
     d="m 4,11 0,2 7,0 0,-2 -7,0 z m 0,12 0,2 7,0 0,-2 -7,0 z"
     style="color:#000000;display:inline;overflow:visible;visibility:visible;fill:#3adaef;fill-opacity:1;fill-rule:nonzero;stroke:none;stroke-width:2.28571415;marker:none;enable-background:accumulate"
     inkscape:connector-curvature="0" />
  <path
     id="path4580"
     d="M 60,35.886719 58.072266,37 60,37 60,35.886719 Z M 53,47 l 0,2 7,0 0,-2 -7,0 z m 0,12 0,2 7,0 0,-2 -7,0 z"
     style="color:#000000;display:inline;overflow:visible;visibility:visible;fill:#a95ddd;fill-opacity:1;fill-rule:nonzero;stroke:none;stroke-width:2.28571415;marker:none;enable-background:accumulate"
     inkscape:connector-curvature="0" />
  <path
     id="path4575"
     d="m 53,11 0,2 7,0 0,-2 -7,0 z m 0,12 0,2 7,0 0,-2 -7,0 z m -49,12 0,2 7,0 0,-2 -7,0 z m 49,0 0,2 5.072266,0 L 60,35.886719 60,35 53,35 Z m -49,12 0,2 7,0 0,-2 -7,0 z m 0,12 0,2 7,0 0,-2 -7,0 z"
     style="color:#000000;display:inline;overflow:visible;visibility:visible;fill:#e99138;fill-opacity:1;fill-rule:nonzero;stroke:none;stroke-width:2.28571415;marker:none;enable-background:accumulate"
     inkscape:connector-curvature="0" />
  <path
     inkscape:connector-curvature="0"
     id="path3850-7"
     d="m 31.211691,50.705438 c -1.309014,-0.648015 -1.56639,-0.996126 -0.996859,-1.348146 0.694917,-0.429538 0.297308,-2.926242 -0.913248,-5.734335 -1.189963,-2.760539 -1.206174,-2.845523 -0.659081,-3.456048 1.277053,-1.425072 1.21098,-1.504904 -1.063433,-1.284894 -6.315599,0.610765 -7.42485,0.808744 -9.60435,1.714021 -2.870419,1.192325 -5.243234,1.902464 -5.243234,1.569158 0,-0.141242 0.379576,-0.363388 0.843498,-0.493442 l 0.843493,-0.236416 -0.894383,-0.180273 c -0.891908,-0.179799 -0.889361,-0.183589 0.920178,-1.377634 0.998005,-0.658555 3.815942,-3.169766 6.26208,-5.580303 4.400519,-4.336644 8.954945,-7.956388 11.868994,-9.433219 0.87256,-0.442203 1.65952,-1.101878 1.872693,-1.569775 0.202221,-0.443876 0.367678,-2.093331 0.367678,-3.665446 0,-3.332613 0.453294,-4.218504 2.467319,-4.821981 1.125194,-0.337162 1.309998,-0.298108 2.710791,0.572763 0.933149,0.580133 2.126621,1.011865 3.146867,1.138347 4.066499,0.504126 7.459448,1.611794 8.096885,2.643293 0.114858,0.185873 -0.192055,0.130607 -0.68203,-0.122789 -2.654089,-1.37265 -7.83191,-1.864218 -9.799623,-0.930386 -1.609494,0.763847 -1.73528,1.247547 -1.165694,4.482781 0.772582,4.388294 0.228753,7.891478 -1.596611,10.284899 -0.438628,0.575165 -1.631844,1.660005 -2.651609,2.41077 -1.019757,0.750764 -2.033808,1.71141 -2.253442,2.134851 -0.21963,0.42338 -0.6656,1.108349 -0.99104,1.522138 -0.508918,0.647005 -0.596246,1.294958 -0.624133,4.63096 -0.02044,2.444055 0.09383,4.030744 0.308937,4.29008 0.187744,0.226112 0.255681,0.752599 0.150977,1.169881 -0.213712,0.851501 0.46151,1.396703 1.730078,1.396703 0.400595,0 0.996281,0.202663 1.323746,0.450391 0.549407,0.415565 0.476941,0.451097 -0.938235,0.459863 -0.957872,0.0059 -2.023011,-0.232744 -2.837209,-0.635812 z m -0.720435,-8.020152 c -0.01648,-0.5484 0.0708,-1.583667 0.193942,-2.300734 0.251484,-1.464513 -0.134553,-1.737471 -0.7722,-0.545915 -0.480595,0.898112 -0.48735,2.328569 -0.01514,3.210987 0.473896,0.885493 0.628105,0.790858 0.593423,-0.364338 z"
     style="fill:#491100;fill-opacity:0.70751339;stroke:none;display:inline;enable-background:new" />
  <path
     style="fill:#61e4f5;fill-opacity:1;fill-rule:nonzero"
     d="M 0,1 0,4 2,2 Z"
     id="path4298"
     inkscape:connector-curvature="0"
     sodipodi:nodetypes="cccc" />
  <path
     id="path4606"
     d="M 58.158203,0 54.693359,2 64,2 64,1 62,0 58.158203,0 Z"
     style="color:#000000;display:inline;overflow:visible;visibility:visible;opacity:1;fill:#e99138;fill-opacity:1;fill-rule:nonzero;stroke:none;stroke-width:2.28571415;stroke-linecap:butt;stroke-linejoin:miter;stroke-miterlimit:4;stroke-dasharray:none;stroke-dashoffset:0;stroke-opacity:1;marker:none;enable-background:accumulate"
     inkscape:connector-curvature="0" />
  <path
     d="M 64,4 62,2 64,1 z"
     id="path3028"
     style="fill:#d27c3a;fill-opacity:1"
     inkscape:connector-curvature="0"
     sodipodi:nodetypes="cccc" />
</svg>

<svg xmlns="http://www.w3.org/2000/svg" viewBox="0 0 64 64"><g color="#000"><path d="m2 0l-2 1v1h32 32v-1l-2-1h-30z" fill="#3adaef"/><path d="m0 2v32 28l2 2h30 30l2-2v-28-32h-32zm4 3h7v8h-7zm49 0h7v8h-7zm-49 12h7v8h-7zm49 0h7v8h-7zm-49 12h7v8h-7zm49 0h7v8h-7zm-49 12h7v8h-7zm49 0h7v8h-7zm-49 12h7v8h-7zm49 0h7v8h-7z" fill="#3e6782"/><path d="m58.16 0l-3.465 2-46.766 27h3.072v6h-7v-3.732l-4 2.311v.422 28l2 2h9.307l46.766-27 1.928-1.113 4-2.309v-31.578-1l-2-1h-3.842m-5.158 5h7v6h-7v-6m0 12h7v6h-7v-6m0 12h7v6h-7v-6m-49 12h7v6h-7v-6m0 12h7v6h-7v-6" fill="#d57e39"/><path d="m54.693 2l-46.766 27h3.072v8h-7v-5.732l-4 2.311v.422 28l2 2h9.307l46.766-27h-5.072v-8h7v6.887l4-2.309v-31.578h-9.307m-1.693 3h7v8h-7v-8zm0 12h7v8h-7v-8m-49 24h7v8h-7v-8m0 12h7v8h-7v-8" fill="#c26b38"/><path d="m0 2v31.578l4-2.311v-2.268h3.928l46.766-27h-22.693-32m4 3h7v6h-7v-6m0 12h7v6h-7v-6" fill="#23b4d2"/><path d="m0 2v31.578l4-2.311v-2.268h3.928l46.766-27h-22.693-32m4 3h7v8h-7v-8zm0 12h7v8h-7v-8" fill="#0f92b9"/><path d="m64 33.578l-4 2.309-1.928 1.113-46.766 27h20.693 30l2-2v-28-.422m-11 7.422h7v6h-7v-6m0 12h7v6h-7v-6" fill="#8552bf"/><path d="m64 33.578l-4 2.309v1.113h-1.928l-46.766 27h20.693 30l2-2v-28-.422m-11 7.422h7v8h-7v-8m0 12h7v8h-7v-8" fill="#6748a5"/><path d="m4 11v2h7v-2h-7m0 12v2h7v-2h-7" fill="#3adaef"/><path d="m60 35.887l-1.928 1.113h1.928v-1.113m-7 11.11v2h7v-2h-7zm0 12v2h7v-2h-7" fill="#a95ddd"/><path d="m53 11v2h7v-2h-7m0 12v2h7v-2h-7m-49 12v2h7v-2h-7m49 0v2h5.072l1.928-1.113v-.887h-7m-49 12v2h7v-2h-7zm0 12v2h7v-2h-7" fill="#e99138"/></g><path d="m31.21 50.705c-1.309-.648-1.566-.996-.997-1.348.695-.43.297-2.926-.913-5.734-1.19-2.761-1.206-2.846-.659-3.456 1.277-1.425 1.211-1.505-1.063-1.285-6.316.611-7.425.809-9.604 1.714-2.87 1.192-5.243 1.902-5.243 1.569 0-.141.38-.363.843-.493l.843-.236-.894-.18c-.892-.18-.889-.184.92-1.378.998-.659 3.816-3.17 6.262-5.58 4.401-4.337 8.955-7.956 11.869-9.433.873-.442 1.66-1.102 1.873-1.57.202-.444.368-2.093.368-3.665 0-3.333.453-4.219 2.467-4.822 1.125-.337 1.31-.298 2.711.573.933.58 2.127 1.012 3.147 1.138 4.066.504 7.459 1.612 8.097 2.643.115.186-.192.131-.682-.123-2.654-1.373-7.832-1.864-9.8-.93-1.609.764-1.735 1.248-1.166 4.483.773 4.388.229 7.891-1.597 10.285-.439.575-1.632 1.66-2.652 2.411-1.02.751-2.034 1.711-2.253 2.135-.22.423-.666 1.108-.991 1.522-.509.647-.596 1.295-.624 4.631-.02 2.444.094 4.03.309 4.29.188.226.256.753.151 1.17-.214.852.462 1.397 1.73 1.397.401 0 .996.203 1.324.45.549.416.477.451-.938.46-.958.006-2.023-.233-2.837-.636m-.72-8.02c-.016-.548.071-1.584.194-2.301.251-1.465-.135-1.737-.772-.546-.481.898-.487 2.329-.015 3.211.474.885.628.791.593-.364" fill="#491100" fill-opacity=".708"/><path d="m0 1v3l2-2" fill="#61e4f5"/><path d="m58.16 0l-3.465 2h9.307v-1l-2-1h-3.842" color="#000" fill="#e99138"/><path d="m64 4l-2-2 2-1z" fill="#d27c3a"/></svg>
